assets/box.svg

<svg xmlns="http://www.w3.org/2000/svg" fill="none" viewBox="0 0 28 28">
  <path fill="#2A2238" d="M5.1625.7c.16301-.217343.37438-.393749.61738-.515248C6.02287.0632539 6.29082 0 6.5625 0h14.875c.2717 0 .5396.0632539.7826.184752.243.121499.4544.297905.6174.515248l4.9875 6.65c.1136.15146.175.33568.175.525V26.25c0 .4641-.1844.9092-.5126 1.2374-.3282.3282-.7733.5126-1.2374.5126H1.75c-.46413 0-.909248-.1844-1.237437-.5126C.184375 27.1592 0 26.7141 0 26.25V7.875c0-.18932.0614056-.37354.175-.525L5.1625.7Zm7.9625 1.05H6.5625L2.625 7h10.5V1.75Zm1.75 0V7h10.5l-3.9375-5.25H14.875Zm11.375 7H1.75v17.5h24.5V8.75Z"/>
</svg>

<svg width="28" height="28" viewBox="0 0 28 28" fill="none" xmlns="http://www.w3.org/2000/svg">
<path d="M5.1625 0.7C5.32551 0.482657 5.53688 0.306251 5.77988 0.184752C6.02287 0.0632539 6.29082 0 6.5625 0L21.4375 0C21.7092 0 21.9771 0.0632539 22.2201 0.184752C22.4631 0.306251 22.6745 0.482657 22.8375 0.7L27.825 7.35C27.9386 7.50146 28 7.68568 28 7.875V26.25C28 26.7141 27.8156 27.1592 27.4874 27.4874C27.1592 27.8156 26.7141 28 26.25 28H1.75C1.28587 28 0.840752 27.8156 0.512563 27.4874C0.184375 27.1592 0 26.7141 0 26.25V7.875C0 7.68568 0.0614056 7.50146 0.175 7.35L5.1625 0.7ZM13.125 1.75H6.5625L2.625 7H13.125V1.75ZM14.875 1.75V7H25.375L21.4375 1.75H14.875ZM26.25 8.75H1.75V26.25H26.25V8.75Z" fill="#2A2238"/>
</svg>
